X: 47
T:Gold Ring,The. BF11.47
M:6/8
Q:120
C:Browne A hand
S:MS11,c1800.,Browne Coll.,Lakes
R:Jig
O:England
A:Lakes
Z:vmp.Chris Partington
K:D
g|a3efg|a3efg|a3g2f|ecA A2f|!
g3def|g3def|g3f2e|dBGG2:|!
|:f|ecA AcA|AcAf3|ecAA2c|dBGG2f|!
ecA AcA|AcAg3|defg2e|dBGG2:|]
